packages/ffe-icons/icons/filled/sm/smart_toy.svg

<svg xmlns="http://www.w3.org/2000/svg" height="20" viewBox="0 -960 960 960" width="20"><path d="M212.001-404.001q-31.922 0-53.96-22.038-22.038-22.039-22.038-53.961 0-31.922 22.038-53.961 22.038-22.038 53.96-22.038V-648q0-21.142 15.429-36.57 15.428-15.429 36.57-15.429h140.001q0-31.922 22.038-53.96 22.039-22.038 53.961-22.038 31.922 0 53.961 22.038 22.038 22.038 22.038 53.96H696q21.142 0 36.57 15.429 15.429 15.428 15.429 36.57v92.001q31.922 0 53.96 22.038 22.038 22.039 22.038 53.961 0 31.922-22.038 53.961-22.038 22.038-53.96 22.038V-216q0 21.142-15.441 36.57-15.44 15.429-36.598 15.429H263.717q-21.159 0-36.437-15.429-15.279-15.428-15.279-36.57v-188.001Zm147.954-62q15.814 0 26.929-11.07 11.115-11.07 11.115-26.884t-11.07-26.929q-11.07-11.115-26.884-11.115t-26.929 11.07q-11.115 11.07-11.115 26.884t11.07 26.929q11.07 11.115 26.884 11.115Zm228 0q15.814 0 26.929-11.07 11.115-11.07 11.115-26.884t-11.07-26.929q-11.07-11.115-26.884-11.115t-26.929 11.07q-11.115 11.07-11.115 26.884t11.07 26.929q11.07 11.115 26.884 11.115Zm-215.995 144h215.757q11.033 0 18.658-7.418 7.624-7.418 7.624-18.384 0-10.966-7.463-18.581t-18.496-7.615H372.283q-11.033 0-18.657 7.418-7.625 7.418-7.625 18.384 0 10.966 7.463 18.581t18.496 7.615Z"/></svg>

<svg xmlns="http://www.w3.org/2000/svg" height="20" viewBox="0 -960 960 960" width="20"><path d="M212-404q-31.92 0-53.96-22.04T136-480q0-31.92 22.04-53.96T212-556v-92q0-21.14 15.43-36.57T264-700h140q0-31.92 22.04-53.96T480-776q31.92 0 53.96 22.04T556-700h140q21.14 0 36.57 15.43T748-648v92q31.92 0 53.96 22.04T824-480q0 31.92-22.04 53.96T748-404v188q0 21.14-15.44 36.57T695.96-164H263.72q-21.16 0-36.44-15.43Q212-194.86 212-216v-188Zm147.95-62q15.82 0 26.93-11.07Q398-488.14 398-503.95q0-15.82-11.07-26.93Q375.86-542 360.05-542q-15.82 0-26.93 11.07Q322-519.86 322-504.05q0 15.82 11.07 26.93Q344.14-466 359.95-466Zm228 0q15.82 0 26.93-11.07Q626-488.14 626-503.95q0-15.82-11.07-26.93Q603.86-542 588.05-542q-15.82 0-26.93 11.07Q550-519.86 550-504.05q0 15.82 11.07 26.93Q572.14-466 587.95-466ZM371.96-322h215.76q11.03 0 18.65-7.42 7.63-7.42 7.63-18.38 0-10.97-7.46-18.58-7.47-7.62-18.5-7.62H372.28q-11.03 0-18.65 7.42-7.63 7.42-7.63 18.38 0 10.97 7.46 18.58 7.47 7.62 18.5 7.62Z"/></svg>
